tools/download-figma-icons/icons/solid/child.svg

<svg width="24" height="25" viewBox="0 0 24 25" fill="none" xmlns="http://www.w3.org/2000/svg">
<path fill-rule="evenodd" clip-rule="evenodd" d="M0.502487 8.595C1.97249 3.63 6.56999 0 12 0C12.7125 0 13.4025 0.075 14.0775 0.195C14.0775 0.198107 14.0762 0.2025 14.0747 0.207647C14.0726 0.214926 14.07 0.223713 14.07 0.2325C13.5525 3.9825 11.16 6.5325 6.95249 7.8C3.82455 8.7391 0.780113 8.60669 0.526666 8.59567C0.516978 8.59524 0.511368 8.595 0.509987 8.595H0.502487ZM15.6525 0.570024C16.1025 2.10752 18.0225 7.35752 23.1375 7.55252C21.81 4.24502 19.065 1.66502 15.6525 0.570024ZM13.5 12.375C13.5 12.9975 14.0025 13.5 14.625 13.5C15.2475 13.5 15.75 12.9975 15.75 12.375C15.75 11.7525 15.2475 11.25 14.625 11.25C14.0025 11.25 13.5 11.7525 13.5 12.375ZM12.1125 18.75C13.11 18.75 14.235 18.54 15.3675 17.9025C15.7275 17.7 15.855 17.2425 15.6525 16.8825C15.45 16.5225 14.9925 16.395 14.6325 16.5975C12.0652 18.0379 9.50525 16.671 9.36934 16.5985L9.3675 16.5975C9.0075 16.395 8.55 16.5225 8.3475 16.8825C8.145 17.2425 8.2725 17.7 8.6325 17.9025C8.7225 17.955 10.1775 18.75 12.1125 18.75ZM10.5 12.375C10.5 11.7525 9.9975 11.25 9.375 11.25C8.7525 11.25 8.25 11.7525 8.25 12.375C8.25 12.9975 8.7525 13.5 9.375 13.5C9.9975 13.5 10.5 12.9975 10.5 12.375ZM23.4225 9.07497C23.49 9.07497 23.625 9.06747 23.625 9.06747C23.895 10.1325 24.03 11.205 23.9925 12.375C23.82 17.9025 19.8225 22.71 14.3925 23.7675C6.735 25.26 0 19.4025 0 12C0 11.325 0.06 10.71 0.1725 10.065C0.1725 10.065 0.33 10.08 0.42 10.0875C0.4575 10.095 0.75 10.11 1.23 10.11C2.4375 10.11 4.8375 9.99747 7.35 9.24747C11.115 8.12247 13.74 6.02247 14.9475 3.04497C14.97 2.99247 15.0375 2.98497 15.06 3.03747C16.245 5.56497 18.6975 9.07497 23.4225 9.07497Z" fill="black"/>
</svg>

<svg xmlns="http://www.w3.org/2000/svg" width="24" height="25" fill="none" viewBox="0 0 24 25"><path fill="currentColor" fill-rule="evenodd" d="M.502 8.595C1.972 3.63 6.57 0 12 0c.713 0 1.402.075 2.078.195l-.003.013q-.004.011-.005.025c-.518 3.75-2.91 6.3-7.118 7.567-3.127.94-6.172.807-6.425.796L.51 8.595zM15.652.57c.45 1.538 2.37 6.788 7.486 6.983A12.06 12.06 0 0 0 15.651.57M13.5 12.375c0 .623.502 1.125 1.125 1.125s1.125-.502 1.125-1.125-.502-1.125-1.125-1.125-1.125.502-1.125 1.125m-1.387 6.375a6.55 6.55 0 0 0 3.255-.848.75.75 0 0 0-.735-1.305c-2.568 1.44-5.128.074-5.264.002l-.002-.002a.75.75 0 0 0-.735 1.305c.09.053 1.546.848 3.48.848M10.5 12.375c0-.623-.502-1.125-1.125-1.125s-1.125.502-1.125 1.125.502 1.125 1.125 1.125 1.125-.502 1.125-1.125m12.923-3.3c.067 0 .202-.008.202-.008.27 1.066.405 2.138.367 3.308-.172 5.528-4.17 10.335-9.6 11.392C6.736 25.26 0 19.403 0 12c0-.675.06-1.29.173-1.935l.247.023a10 10 0 0 0 .81.022c1.208 0 3.608-.113 6.12-.863 3.765-1.125 6.39-3.225 7.598-6.202.022-.053.09-.06.112-.008 1.185 2.528 3.638 6.038 8.362 6.038" clip-rule="evenodd"/></svg>
